packages/core/src/svgs/tokens/branded/FUTURE.svg

<svg width="24" height="24" viewBox="0 0 24 24" fill="none" xmlns="http://www.w3.org/2000/svg">
<path fill-rule="evenodd" clip-rule="evenodd" d="M9.64654 20.4864C11.5856 20.4864 13.4452 19.716 14.8165 18.3449C16.1875 16.9737 16.9578 15.1142 16.9578 13.175C16.9578 11.236 16.1875 9.37635 14.8165 8.0052C13.4452 6.63407 11.5856 5.86378 9.64654 5.86378C7.70747 5.86378 5.84782 6.63407 4.47669 8.0052C3.10555 9.37635 2.33526 11.236 2.33526 13.175C2.33526 15.1142 3.10555 16.9737 4.47669 18.3449C5.84782 19.716 7.70747 20.4864 9.64654 20.4864ZM9.64654 20.8215C11.6745 20.8215 13.6194 20.0159 15.0535 18.582C16.4874 17.148 17.293 15.203 17.293 13.175C17.293 11.1471 16.4874 9.20213 15.0535 7.76812C13.6194 6.33412 11.6745 5.5285 9.64654 5.5285C7.61855 5.5285 5.67363 6.33412 4.23962 7.76812C2.80562 9.20213 2 11.1471 2 13.175C2 15.203 2.80562 17.148 4.23962 18.582C5.67363 20.0159 7.61855 20.8215 9.64654 20.8215Z" fill="#0C364F"/>
<path d="M3.52881 11.5869C3.70527 11.4398 3.98172 11.3399 4.32876 11.5105C4.54639 11.6281 4.84637 11.8456 5.14047 12.0692C5.72866 12.5103 6.31686 12.9515 6.31686 12.5103C6.31686 11.8456 7.31679 11.8456 7.65207 12.5103C7.79324 12.7926 7.75206 13.0103 7.71089 13.2514C7.65794 13.5749 7.59913 13.9279 7.98146 14.5043C8.36967 15.0808 8.41672 16.21 8.45789 17.063C8.4873 17.6865 8.51082 18.1629 8.64611 18.1629C8.98139 18.1629 9.98134 16.4982 10.3107 15.8337C10.646 15.169 10.646 14.5043 10.3107 14.1749C10.2225 14.0867 10.0872 13.9279 9.92837 13.7396C9.47546 13.2102 8.8108 12.422 8.31672 12.175C7.65207 11.8456 7.65207 10.8458 8.31672 10.5164C8.47554 10.434 8.68728 10.3576 8.90493 10.281C9.63425 10.0046 10.4872 9.69292 9.98134 9.18702C9.62835 8.8341 8.90493 8.66941 8.35202 8.54001C7.85793 8.42237 7.49324 8.34591 7.64618 8.18709C7.82852 8.01063 7.91676 7.52243 7.95793 7.08716C6.88968 7.38438 5.91826 7.95702 5.14095 8.74775C4.36363 9.53852 3.80769 10.5195 3.52881 11.5928V11.5869ZM14.0457 8.64588C14.6889 9.26595 15.1927 10.0159 15.5235 10.8458C15.8544 11.6756 16.0048 12.5664 15.9647 13.4588C15.9246 14.3513 15.695 15.225 15.2911 16.022C14.8873 16.8188 14.3183 17.5206 13.6222 18.0805C13.4693 17.8806 13.4575 17.5217 13.634 17.1629C13.9693 16.4982 13.634 14.8396 13.3046 13.8397C13.0987 13.2221 12.7634 13.2398 12.3753 13.2691C12.1399 13.2809 11.8929 13.2985 11.6401 13.175C10.9754 12.8397 11.6401 11.8456 12.3046 11.1752C12.793 10.6928 12.9222 10.387 13.0869 9.9987C13.2836 9.47209 13.6141 9.00588 14.0457 8.64588Z" fill="#0C364F"/>
<path fill-rule="evenodd" clip-rule="evenodd" d="M9.64643 19.304C10.4512 19.304 11.2482 19.1454 11.992 18.8375C12.7356 18.5295 13.4112 18.0779 13.9802 17.5088C14.5494 16.9398 15.0009 16.2641 15.3089 15.5205C15.6169 14.7769 15.7754 13.9799 15.7754 13.175C15.7754 12.3702 15.6169 11.5732 15.3089 10.8296C15.0009 10.0859 14.5494 9.41033 13.9802 8.84113C13.4112 8.272 12.7356 7.82054 11.992 7.51254C11.2482 7.20452 10.4512 7.04598 9.64643 7.04598C8.0209 7.04598 6.46197 7.69173 5.31257 8.84113C4.16315 9.9906 3.51742 11.5494 3.51742 13.175C3.51742 14.8005 4.16315 16.3595 5.31257 17.5088C6.46197 18.6582 8.0209 19.304 9.64643 19.304ZM9.64643 19.6451C11.3624 19.6451 13.0081 18.9634 14.2215 17.7501C15.4349 16.5367 16.1166 14.891 16.1166 13.175C16.1166 11.459 15.4349 9.81328 14.2215 8.59989C13.0081 7.38651 11.3624 6.70483 9.64643 6.70483C7.93043 6.70483 6.28472 7.38651 5.07133 8.59989C3.85794 9.81328 3.17627 11.459 3.17627 13.175C3.17627 14.891 3.85794 16.5367 5.07133 17.7501C6.28472 18.9634 7.93043 19.6451 9.64643 19.6451Z" fill="#0C364F"/>
<path d="M3.78211 18.8628C5.66434 20.6685 7.69361 20.9097 8.48179 20.8038C4.45265 14.0748 11.4992 9.5987 15.5284 8.19878V7.88116C5.58787 8.65758 3.55859 15.5277 3.78211 18.8628Z" fill="#FAA41A"/>
<path fill-rule="evenodd" clip-rule="evenodd" d="M17.1281 5.15198H16.3047C16.2871 5.15206 16.2695 5.15575 16.2533 5.16283C16.2372 5.16992 16.2226 5.18024 16.2107 5.19315L14.9755 6.64601C14.8872 6.74599 14.993 6.89305 15.1165 6.84599L16.0694 6.46954C16.1577 6.44014 16.2459 6.49895 16.2576 6.58718C16.3399 7.31655 16.9223 7.58123 17.3399 7.64005C17.4282 7.65181 17.4928 7.74592 17.4575 7.82827L17.0223 8.88702C16.9812 8.99289 17.1047 9.09878 17.2046 9.03996L19.0633 8.00472C19.1045 7.9812 19.1281 7.94003 19.1281 7.89298V7.11655C19.1281 7.05774 19.1634 7.01657 19.2163 6.99892C21.1161 6.25191 21.8515 4.35204 21.9984 3.3874C22.0009 3.37148 22.0001 3.35523 21.996 3.33965C21.992 3.32406 21.9847 3.30947 21.9748 3.29679C21.965 3.28411 21.9525 3.27359 21.9383 3.26591C21.9242 3.25822 21.9086 3.25353 21.8926 3.25211C19.2221 2.82862 17.7164 4.25205 17.2458 5.08141C17.2342 5.10258 17.2174 5.1203 17.1966 5.13271C17.1759 5.14512 17.1523 5.15177 17.1281 5.15198ZM20.2339 4.94024C20.3898 4.94024 20.5395 4.87827 20.6497 4.76795C20.7601 4.65765 20.8221 4.50804 20.8221 4.35204C20.8221 4.19603 20.7601 4.04642 20.6497 3.93612C20.5395 3.82581 20.3898 3.76385 20.2339 3.76385C20.0778 3.76385 19.9282 3.82581 19.8179 3.93612C19.7077 4.04642 19.6456 4.19603 19.6456 4.35204C19.6456 4.50804 19.7077 4.65765 19.8179 4.76795C19.9282 4.87827 20.0778 4.94024 20.2339 4.94024Z" fill="#FEA224"/>
</svg>

<svg xmlns="http://www.w3.org/2000/svg" width="24" height="24" fill="none" viewBox="0 0 24 24">
    <path fill="#0C364F" fill-rule="evenodd" d="M9.647 20.486a7.312 7.312 0 1 0-.001-14.624 7.312 7.312 0 0 0 0 14.624m0 .335a7.647 7.647 0 1 0 0-15.294 7.647 7.647 0 0 0 0 15.295" clip-rule="evenodd"/>
    <path fill="#0C364F" d="M3.529 11.587c.176-.147.453-.247.8-.076.217.117.517.335.811.558.589.441 1.177.882 1.177.441 0-.664 1-.664 1.335 0 .141.283.1.5.059.741-.053.324-.112.677.27 1.253.389.577.436 1.706.477 2.559.03.624.053 1.1.188 1.1.335 0 1.335-1.665 1.665-2.33.335-.664.335-1.329 0-1.658a8 8 0 0 1-.383-.435c-.453-.53-1.117-1.318-1.611-1.565-.665-.33-.665-1.33 0-1.659.159-.082.37-.158.588-.235.73-.276 1.582-.588 1.076-1.094-.353-.353-1.076-.518-1.629-.647-.494-.118-.859-.194-.706-.353.183-.176.27-.665.312-1.1a6.33 6.33 0 0 0-4.43 4.506zm10.517-2.941a6.292 6.292 0 0 1-.424 9.435c-.153-.2-.165-.56.012-.918.335-.665 0-2.323-.33-3.323-.205-.618-.54-.6-.929-.57-.235.01-.482.029-.735-.095-.665-.335 0-1.33.665-2 .488-.482.617-.788.782-1.176.197-.527.527-.993.959-1.353"/>
    <path fill="#0C364F" fill-rule="evenodd" d="M9.646 19.304a6.13 6.13 0 0 0 5.663-3.783 6.13 6.13 0 1 0-5.663 3.783m0 .341a6.47 6.47 0 1 0 0-12.94 6.47 6.47 0 0 0 0 12.94" clip-rule="evenodd"/>
    <path fill="#FAA41A" d="M3.782 18.863c1.882 1.806 3.912 2.047 4.7 1.94C4.452 14.076 11.499 9.6 15.528 8.2v-.32c-9.94.777-11.97 7.647-11.746 10.982"/>
    <path fill="#FEA224" fill-rule="evenodd" d="M17.128 5.152h-.823a.13.13 0 0 0-.094.041l-1.235 1.453c-.089.1.017.247.14.2l.953-.376a.143.143 0 0 1 .189.117c.082.73.664.994 1.082 1.053.088.012.153.106.117.188l-.435 1.059c-.04.106.083.212.183.153l1.858-1.035a.13.13 0 0 0 .065-.112v-.776c0-.06.035-.1.088-.118 1.9-.747 2.636-2.647 2.782-3.612a.12.12 0 0 0-.06-.121.1.1 0 0 0-.045-.014c-2.67-.423-4.177 1-4.647 1.83a.14.14 0 0 1-.118.07m3.106-.212a.588.588 0 1 0 0-1.175.588.588 0 0 0 0 1.175" clip-rule="evenodd"/>
</svg>
